X: 2216
Q: "Highland Schottische."
M: C
L: 1/8
K: Em
ue>uf |\
vg>vfue>uf ve>vduB>uA | (B<d)d>e d2e>f |\
g>fe>f e>dB>A | (B<e)f>g e2g>e |\
d>eg>a b2a>g | a>ga>b d2g>a |\
b>ag>f e>dB>A | B2e2e2 |]
uG>uA |\
b>ag>f e>dB>A | B2e2e2 G>A |\
b>ag>f e>dB>A | B2e2e2 |]


